!!!OTL: HERR LIEUTNANT
!!!ARE: Europa, Mitteleuropa, Deutschland
!!!SCT: E1725
!!!YEM: Copyright 1995, estate of Helmut Schaffrath.
**kern
*ICvox
*Ivox
*M2/4
*k[b-]
*F:
{8c
=1
8f
4f
8g
=2
8a
4a}
{8cc
=3
8cc
16b-
16a
8b-
8cc
=4
4.a}
{8g
=5
8dd
8dd
8dd
8dd
=6
8dd
4cc}
{16f
16f
=7
8b-
8b-
8b-
8b-
=8
8b-
4a}
==
!!!AGN: Scherz - Lied, Studenten - Lied
!!!ONB: ESAC (Essen Associative Code) Database: ERK3
!!!AMT: simple duple
!!!AIN: vox
!!!EED: Helmut Schaffrath
!!!EEV: 1.0
*-
